X: 1
T: Over the Moor to Maggie
R: reel
Z: 2005 John Chambers <jc:trillian.mit.edu>
M: C|
L: 1/8
K: G
|: DE \
|  "G"~G3A  BGBd |  "C"efge  "G"dBAG \
| "Am"EAAG  ABAG | "Am"EAAG "D7"A2DE |
|  "G"~G3A  BGBd |  "C"efge  "G"dBAG \
|  "C"EG~G2 "G"BGAG |  "C"EG"D7"GF "G"G2 :|
|: ga \
|  "G"~b3g  "D"a3f   |  "C"gage  "G"d2Bd \
| "Am"eaag     abag  | "Am"eaag "D7"a2ga |
|  "G"bg~g2 "D"af~f2 |  "C"gage  "G"d2Bd \
| "Am"ea~a2 "G"bgag  |  "C"eg"D7"gf "G"g2 :|
|: Bd \
|  "C"~e3c  "G"d2dB | "Am"c2cA  "G"B2AG \
| "Am"EAAG     ABAG | "Am"EAAG "D7"ABcd |
|  "C"~e3c  "G"dedB | "Am"cA~A2 "G"B2AG \
|  "C"EG~G2 "G"BGAG |  "C"EG"D7"GF "G"G2 :|
